src/images/icons/limra-logo.svg

<?xml version="1.0" encoding="UTF-8"?><svg viewBox="0 0 180 60" version="1.1" xmlns="http://www.w3.org/2000/svg" xmlns:xlink="http://www.w3.org/1999/xlink"> <defs> <path d="M0.879842105,12.1347692 C0.879842105,5.54884615 6.19165789,0.208384615 12.7363158,0.208384615 C19.2761579,0.208384615 24.5831579,5.54884615 24.5831579,12.1347692 C24.5831579,18.7206923 19.2761579,24.0611538 12.7363158,24.0611538 C6.19165789,24.0611538 0.879842105,18.7206923 0.879842105,12.1347692 Z" id="path-1"/> <path d="M0.905605263,8.58121678 L0.905605263,8.46150281 L0.990998203,7.088697 L0.990998203,7.088697 C1.78742399,5.37644288 2.97647626,3.88571497 4.44135465,2.73377257 L5.61063158,3.87692308 L6.56415789,5.35984615 L5.23981579,6.09646154 L5.23981579,5.28230769 L4.72934211,5.87838462 L3.99734211,7.20623077 L4.72934211,8.02038462 L5.02310526,6.83792308 L5.98144737,6.46961538 L7.5225,8.98476923 L6.78568421,9.49846154 L5.98144737,9.94430769 L5.23981579,11.5726154 L5.02310526,12.7550769 L6.27039474,13.7921538 L5.82734211,13.7921538 L5.02310526,13.3463077 L4.58005263,12.3867692 L3.771,12.3867692 L3.771,13.2736154 L4.503,13.4238462 L5.02310526,14.0150769 L5.17239474,14.679 L6.85792105,14.3106923 L8.40860526,16.0843846 L9.35731579,16.3848462 L8.99131579,18.2312308 L7.22392105,22.3746923 L7.02924677,23.0835473 C6.66494901,22.9247786 6.31011478,22.7481473 5.9658384,22.554752 L5.90439474,19.4863846 L5.02310526,17.199 L5.38910526,15.7160769 L3.771,14.6063077 L2.52371053,13.4965385 L1.27160526,11.7955385 L0.905605263,8.58121678 L0.905605263,8.58121678 Z M20.6486718,19.9908825 L20.9633684,17.1699231 L22.2154737,15.9099231 L23.0200745,15.7773041 C22.5196676,17.3487612 21.7042202,18.778395 20.6486718,19.9908825 L20.6486718,19.9908825 Z M23.1136217,15.4691567 L22.2154737,14.4173077 L23.4632006,13.8378028 C23.3840212,14.3949259 23.2665715,14.9396387 23.1136217,15.4691567 L23.1136217,15.4691567 Z M22.3149335,6.76173596 L21.1993421,9.72138462 L21.4160526,11.7955385 L20.5299474,12.3140769 L20.4577105,13.7921538 L20.0435526,14.0344615 L20.3854737,15.7887692 L19.5378947,16.002 L19.0611316,14.9746154 L18.7721842,13.8648462 L18.5458421,12.6096923 L17.6693684,14.5287692 L16.7880789,12.2365385 L16.1186842,11.718 L16.1186842,12.6823846 L15.4589211,13.2736154 L15.9019737,14.3106923 L14.9436316,15.7887692 L14.8713947,18.4541538 L14.1345789,20.9644615 L13.4025789,21.1146923 L12.4490526,17.3395385 L11.9337632,15.6433846 L10.9031842,15.7887692 L9.87260526,14.3833846 L9.94965789,13.0506923 L10.7587105,11.718 L10.6816579,10.6857692 L10.6094211,9.49846154 L10.9754211,8.83453846 L10.4553158,8.53892308 L10.5949737,7.70538462 L11.1969474,6.83792308 L11.6496316,7.96223077 L12.1504737,7.42915385 L11.4281053,6.28546154 L11.6737105,5.23869231 L12.7428158,3.73153846 L13.6241053,4.25007692 L13.9949211,4.98669231 L15.0206842,4.25007692 L14.8713947,3.58615385 L15.2422105,2.54907692 L15.8297368,2.32615385 L16.5617368,3.28569231 L17.5200789,2.39884615 L17.6275195,1.78617783 C19.6320543,2.9455364 21.2682684,4.67817578 22.3149335,6.76173596 L22.3149335,6.76173596 Z M10.0492126,0.328330814 L10.6094211,1.953 L9.72331579,2.83984615 L9.58365789,4.914 L9.21284211,4.98669231 L8.03297368,7.20623077 L7.30097368,6.02376923 L7.00721053,3.87692308 L6.19815789,3.87692308 L5.93008842,1.73495054 C7.18037182,1.02688926 8.57099681,0.540363346 10.0492126,0.328330814 L10.0492126,0.328330814 Z" id="path-3"/> <polygon id="path-5" points="0.288947368 59.7092308 0.288947368 0.0918461538 179.787868 0.0918461538 179.787868 59.7092308"/> </defs> <g id="Symbols" stroke="none" stroke-width="1" fill="none" fill-rule="evenodd"> <g id="MASTHEADER" transform="translate(-143.000000, -89.000000)"> <g transform="translate(-2.000000, -46.000000)" id="LIMRA-logo_2color"> <g transform="translate(145.000000, 135.000000)"> <g id="Group-12" transform="translate(93.500000, 11.538462)"> <mask id="mask-2" fill="white"> <use xlink:href="#path-1"/> </mask> <g id="Clip-2"/> <polygon id="Fill-1" fill="#5B91B8" mask="url(#mask-2)" points="23.0372895 24.3276923 24.6794737 24.3276923 24.6794737 -0.0969230769 23.0372895 -0.0969230769"/> <polygon id="Fill-3" fill="#6798BD" mask="url(#mask-2)" points="20.5282632 24.3276923 22.9217105 24.3276923 22.9217105 -0.0969230769 20.5282632 -0.0969230769"/> <polygon id="Fill-4" fill="#719EC1" mask="url(#mask-2)" points="18.0240526 24.3276923 20.4175 24.3276923 20.4175 -0.0969230769 18.0240526 -0.0969230769"/> <polygon id="Fill-5" fill="#7FA5C5" mask="url(#mask-2)" points="15.5198421 24.3276923 17.9084737 24.3276923 17.9084737 -0.0969230769 15.5198421 -0.0969230769"/> <polygon id="Fill-6" fill="#8CADCA" mask="url(#mask-2)" points="13.0156316 24.3276923 15.4090789 24.3276923 15.4090789 -0.0969230769 13.0156316 -0.0969230769"/> <polygon id="Fill-7" fill="#99B5D0" mask="url(#mask-2)" points="10.5066053 24.3276923 12.9000526 24.3276923 12.9000526 -0.0969230769 10.5066053 -0.0969230769"/> <polygon id="Fill-8" fill="#A6BED5" mask="url(#mask-2)" points="8.00239474 24.3276923 10.3958421 24.3276923 10.3958421 -0.0969230769 8.00239474 -0.0969230769"/> <polygon id="Fill-9" fill="#B3C8DA" mask="url(#mask-2)" points="5.49336842 24.3276923 7.89163158 24.3276923 7.89163158 -0.0969230769 5.49336842 -0.0969230769"/> <polygon id="Fill-10" fill="#C1D2E0" mask="url(#mask-2)" points="2.99397368 24.3276923 5.38742105 24.3276923 5.38742105 -0.0969230769 2.99397368 -0.0969230769"/> <polygon id="Fill-11" fill="#CEDBE6" mask="url(#mask-2)" points="0.489763158 24.3276923 2.87839474 24.3276923 2.87839474 -0.0969230769 0.489763158 -0.0969230769"/> </g> <g id="Group-24" transform="translate(94.500000, 11.538462)"> <mask id="mask-4" fill="white"> <use xlink:href="#path-3"/> </mask> <g id="Clip-14"/> <polygon id="Fill-13" fill="#005F57" mask="url(#mask-4)" points="22.2636316 23.7413077 23.6794737 23.7413077 23.6794737 -0.0969230769 22.2636316 -0.0969230769"/> <polygon id="Fill-15" fill="#00655E" mask="url(#mask-4)" points="19.8894474 23.7413077 22.2828947 23.7413077 22.2828947 -0.0969230769 19.8894474 -0.0969230769"/> <polygon id="Fill-16" fill="#006B64" mask="url(#mask-4)" points="17.5200789 23.7413077 19.9087105 23.7413077 19.9087105 -0.0969230769 17.5200789 -0.0969230769"/> <polygon id="Fill-17" fill="#00736C" mask="url(#mask-4)" points="15.1410789 23.7413077 17.5393421 23.7413077 17.5393421 -0.0969230769 15.1410789 -0.0969230769"/> <polygon id="Fill-18" fill="#167C76" mask="url(#mask-4)" points="12.7717105 23.7413077 15.1699737 23.7413077 15.1699737 -0.0969230769 12.7717105 -0.0969230769"/> <polygon id="Fill-19" fill="#32867F" mask="url(#mask-4)" points="10.4023421 23.7413077 12.7909737 23.7413077 12.7909737 -0.0969230769 10.4023421 -0.0969230769"/> <polygon id="Fill-20" fill="#468F89" mask="url(#mask-4)" points="8.02815789 23.7413077 10.4216053 23.7413077 10.4216053 -0.0969230769 8.02815789 -0.0969230769"/> <polygon id="Fill-21" fill="#599993" mask="url(#mask-4)" points="5.64915789 23.7413077 8.04742105 23.7413077 8.04742105 -0.0969230769 5.64915789 -0.0969230769"/> <polygon id="Fill-22" fill="#6CA39D" mask="url(#mask-4)" points="3.27978947 23.7413077 5.66842105 23.7413077 5.66842105 -0.0969230769 3.27978947 -0.0969230769"/> <polygon id="Fill-23" fill="#7EAEA8" mask="url(#mask-4)" points="0.905605263 23.7413077 3.29905263 23.7413077 3.29905263 -0.0969230769 0.905605263 -0.0969230769"/> </g> <g id="Group-35"> <mask id="mask-6" fill="white"> <use xlink:href="#path-5"/> </mask> <g id="Clip-26"/> <polyline id="Fill-25" fill="#00679B" mask="url(#mask-6)" points="0 24.7248462 0 59.9806154 26.2990263 59.9903077 26.3038421 45.447 14.9626579 45.447 14.9626579 24.7248462 0 24.7248462"/> <polygon id="Fill-27" fill="#00679B" mask="url(#mask-6)" points="0 21.7250769 14.9626579 21.7250769 14.9626579 0.0966923077 0 0.0966923077"/> <polygon id="Fill-28" fill="#00679B" mask="url(#mask-6)" points="28.8080526 21.7056923 43.7658947 21.7056923 43.7658947 0.106384615 28.8080526 0.106384615"/> <polygon id="Fill-29" fill="#00679B" mask="url(#mask-6)" points="28.8080526 59.9903077 43.7562632 59.9903077 43.7562632 24.7151538 28.8080526 24.7151538"/> <polyline id="Fill-30" fill="#00679B" mask="url(#mask-6)" points="53.2722632 21.696 74.3654211 21.7056923 71.3603684 0.116076923 57.2452895 0.116076923 53.2722632 21.696"/> <path d="M104.733789,9.59515385 C98.1650526,10.2784615 93.1084737,15.4832308 92.2608947,21.6717692 L81.4783421,21.6426923 L88.9524474,0.0918461538 L104.733789,0.0966923077 L104.733789,9.59515385" id="Fill-31" fill="#00679B" mask="url(#mask-6)"/> <path d="M52.7617895,24.7006154 L74.8036579,24.7006154 L76.3736053,36.4137692 L80.4333158,24.7006154 L92.1549474,24.6957692 C92.6268947,31.5385385 98.0253947,37.0583077 104.757868,37.7561538 L104.762684,59.9806154 L88.2782368,59.9806154 L88.2734211,31.3592308 L77.2500789,59.9806154 L70.0504737,59.9806154 L66.1352368,30.8746154 L59.8602632,59.9806154 L46.2652895,59.9806154 L52.7617895,24.7006154" id="Fill-32" fill="#00679B" mask="url(#mask-6)"/> <path d="M160.245395,46.6052308 L144.497763,46.6052308 L139.956474,60 L123.770605,59.9903077 L146.332579,0.120923077 L160.987026,0.159692308 L179.787868,59.9903077 L163.780184,59.9903077 L160.245395,46.6052308 Z M157.331842,35.6674615 L153.195079,17.2811538 L147.348711,35.6674615 L157.331842,35.6674615 L157.331842,35.6674615 Z" id="Fill-33" fill="#00679B" mask="url(#mask-6)"/> <path d="M107.613632,46.6536923 L107.618447,37.7949231 C114.707289,37.0825385 120.317684,31.0103077 120.317684,23.6926154 C120.317684,16.3749231 114.688026,10.2687692 107.599184,9.56123077 L107.618447,0.106384615 C120.702947,0.421384615 131.211,11.1943846 131.211,24.4340769 C131.211,31.8874615 127.878474,38.5509231 122.638895,43.0190769 L134.808395,59.9515385 L117.384868,59.9806154 L107.613632,46.6536923" id="Fill-34" fill="#00679B" mask="url(#mask-6)"/> </g> <path d="M169.949211,1.89461538 C170.450053,1.89461538 170.811237,1.94307692 171.047211,2.04 C171.461368,2.21446154 171.673263,2.55369231 171.673263,3.06253846 C171.673263,3.426 171.543237,3.69253846 171.278368,3.86215385 C171.138711,3.95423077 170.941263,4.01723077 170.690842,4.06084615 C171.003868,4.10930769 171.239842,4.24015385 171.3795,4.45338462 C171.533605,4.67146154 171.605842,4.875 171.605842,5.07853846 L171.605842,5.379 C171.605842,5.47107692 171.605842,5.57284615 171.615474,5.67946154 C171.620289,5.78607692 171.634737,5.85876923 171.649184,5.88784615 L171.673263,5.94115385 L171.008684,5.94115385 C171.003868,5.92661538 171.003868,5.91207692 170.999053,5.89753846 C170.994237,5.883 170.994237,5.87330769 170.989421,5.85392308 L170.974974,5.72307692 L170.974974,5.40323077 C170.974974,4.93315385 170.844947,4.623 170.594526,4.47276923 C170.450053,4.38553846 170.185184,4.34676923 169.809553,4.34676923 L169.250921,4.34676923 L169.250921,5.94115385 L168.543,5.94115385 L168.543,1.89461538 L169.949211,1.89461538 Z M170.705289,2.53430769 C170.531921,2.43253846 170.242974,2.37923077 169.852895,2.37923077 L169.250921,2.37923077 L169.250921,3.84761538 L169.886605,3.84761538 C170.185184,3.84761538 170.411526,3.81853846 170.560816,3.75553846 C170.835316,3.64892308 170.974974,3.43569231 170.974974,3.12553846 C170.974974,2.82992308 170.883474,2.63123077 170.705289,2.53430769 Z M172.612342,6.54207692 C171.899605,7.26415385 171.032763,7.62276923 170.016632,7.62276923 C169.0005,7.62276923 168.138474,7.26415385 167.430553,6.54207692 C166.722632,5.82 166.366263,4.95253846 166.366263,3.93 C166.366263,2.91230769 166.727447,2.04969231 167.440184,1.32761538 C168.152921,0.610384615 169.010132,0.251769231 170.016632,0.251769231 C171.032763,0.251769231 171.899605,0.610384615 172.612342,1.32761538 C173.329895,2.04484615 173.686263,2.91230769 173.686263,3.93 C173.686263,4.94769231 173.329895,5.82 172.612342,6.54207692 Z M167.791737,1.68138462 C167.180132,2.30169231 166.876737,3.05284615 166.876737,3.93 C166.876737,4.812 167.180132,5.56315385 167.786921,6.18346154 C168.398526,6.80861538 169.144974,7.11876923 170.016632,7.11876923 C170.893105,7.11876923 171.634737,6.80861538 172.246342,6.18346154 C172.857947,5.56315385 173.161342,4.812 173.161342,3.93 C173.161342,3.05284615 172.857947,2.30169231 172.246342,1.68138462 C171.634737,1.06107692 170.893105,0.750923077 170.016632,0.750923077 C169.154605,0.750923077 168.408158,1.06107692 167.791737,1.68138462 L167.791737,1.68138462 Z" id="Fill-36" fill="#00679B"/> </g> </g> </g> </g></svg>

<svg xmlns="http://www.w3.org/2000/svg" viewBox="0 0 180 60"><mask id="a" fill="#fff"><path fill-rule="evenodd" d="M.88 12.135C.88 5.549 6.192.208 12.736.208c6.54 0 11.847 5.34 11.847 11.927 0 6.586-5.307 11.926-11.847 11.926C6.192 24.061.88 18.721.88 12.135z"/></mask><mask id="b" fill="#fff"><path fill-rule="evenodd" d="M.906 8.581v-.12L.99 7.09a11.965 11.965 0 013.45-4.355l1.17 1.143.953 1.483-1.324.736v-.814l-.51.596-.733 1.328.732.814.294-1.182.958-.368 1.541 2.515-.736.513-.805.446-.741 1.629-.217 1.182 1.247 1.037h-.443l-.804-.446-.443-.96h-.809v.888l.732.15.52.591.15.664 1.685-.368 1.55 1.773.95.3-.367 1.847-1.767 4.144-.195.709c-.364-.16-.719-.336-1.063-.53l-.062-3.068-.88-2.287.365-1.483-1.618-1.11-1.247-1.11-1.252-1.7zm19.743 11.41l.314-2.821 1.252-1.26.805-.133a11.933 11.933 0 01-2.371 4.214zm2.465-4.522l-.899-1.052 1.248-.58c-.079.558-.196 1.103-.35 1.632zm-.8-8.707L21.2 9.722l.217 2.074-.886.518-.072 1.478-.414.242.341 1.755-.847.213-.477-1.027-.289-1.11-.226-1.255-.877 1.919-.88-2.292-.67-.519v.964l-.66.592.443 1.037-.958 1.478-.073 2.665-.736 2.51-.732.15-.954-3.774-.515-1.697-1.03.146-1.031-1.406.077-1.332.809-1.333-.077-1.032-.073-1.188.366-.663-.52-.296.14-.834.602-.867.453 1.124.5-.533-.722-1.144.246-1.046 1.069-1.507.881.518.37.737 1.027-.737-.15-.664.371-1.037.588-.223.732.96.958-.887.108-.613a11.952 11.952 0 014.687 4.976zM10.05.328l.56 1.625-.886.887-.14 2.074-.37.073-1.18 2.22-.732-1.183-.294-2.147h-.809L5.93 1.735A11.73 11.73 0 0110.05.328z"/></mask><mask id="c" fill="#fff"><path fill-rule="evenodd" d="M.289 59.71V.091h179.499v59.617z"/></mask><g fill="none" fill-rule="evenodd"><path fill="#5b91b8" d="M23.037 24.328h1.642V-.097h-1.642z" mask="url(#a)" transform="translate(93.5 11.538)"/><path fill="#6798bd" d="M20.528 24.328h2.394V-.097h-2.394z" mask="url(#a)" transform="translate(93.5 11.538)"/><path fill="#719ec1" d="M18.024 24.328h2.393V-.097h-2.393z" mask="url(#a)" transform="translate(93.5 11.538)"/><path fill="#7fa5c5" d="M15.52 24.328h2.388V-.097H15.52z" mask="url(#a)" transform="translate(93.5 11.538)"/><path fill="#8cadca" d="M13.016 24.328h2.393V-.097h-2.393z" mask="url(#a)" transform="translate(93.5 11.538)"/><path fill="#99b5d0" d="M10.507 24.328H12.9V-.097h-2.393z" mask="url(#a)" transform="translate(93.5 11.538)"/><path fill="#a6bed5" d="M8.002 24.328h2.394V-.097H8.002z" mask="url(#a)" transform="translate(93.5 11.538)"/><path fill="#b3c8da" d="M5.493 24.328h2.399V-.097H5.493z" mask="url(#a)" transform="translate(93.5 11.538)"/><path fill="#c1d2e0" d="M2.994 24.328h2.393V-.097H2.994z" mask="url(#a)" transform="translate(93.5 11.538)"/><path fill="#cedbe6" d="M.49 24.328h2.388V-.097H.49z" mask="url(#a)" transform="translate(93.5 11.538)"/><g><path fill="#005f57" d="M22.264 23.741h1.415V-.097h-1.415z" mask="url(#b)" transform="translate(94.5 11.538)"/><path fill="#00655e" d="M19.89 23.741h2.393V-.097h-2.394z" mask="url(#b)" transform="translate(94.5 11.538)"/><path fill="#006b64" d="M17.52 23.741h2.389V-.097H17.52z" mask="url(#b)" transform="translate(94.5 11.538)"/><path fill="#00736c" d="M15.141 23.741h2.398V-.097h-2.398z" mask="url(#b)" transform="translate(94.5 11.538)"/><path fill="#167c76" d="M12.772 23.741h2.398V-.097h-2.398z" mask="url(#b)" transform="translate(94.5 11.538)"/><path fill="#32867f" d="M10.402 23.741h2.389V-.097h-2.389z" mask="url(#b)" transform="translate(94.5 11.538)"/><path fill="#468f89" d="M8.028 23.741h2.394V-.097H8.028z" mask="url(#b)" transform="translate(94.5 11.538)"/><path fill="#599993" d="M5.65 23.741h2.397V-.097H5.65z" mask="url(#b)" transform="translate(94.5 11.538)"/><path fill="#6ca39d" d="M3.28 23.741h2.388V-.097H3.28z" mask="url(#b)" transform="translate(94.5 11.538)"/><path fill="#7eaea8" d="M.906 23.741h2.393V-.097H.906z" mask="url(#b)" transform="translate(94.5 11.538)"/></g><g fill="#00679b"><path d="M0 24.725V59.98l26.299.01.005-14.544H14.963V24.725zM0 21.725h14.963V.097H0zM28.808 21.706h14.958V.106H28.808zM28.808 59.99h14.948V24.715H28.808zM53.272 21.696l21.093.01L71.36.116H57.245zM104.734 9.595c-6.569.683-11.626 5.888-12.473 12.077l-10.783-.03L88.952.093l15.782.005zM52.762 24.7h22.042l1.57 11.714 4.06-11.713 11.72-.005c.473 6.843 5.871 12.362 12.604 13.06l.005 22.225H88.278l-.005-28.622L77.25 59.981h-7.2l-3.915-29.106L59.86 59.98H46.265zM160.245 46.605h-15.747L139.956 60l-16.185-.01L146.333.12l14.654.04 18.8 59.83H163.78zm-2.913-10.938l-4.137-18.386-5.846 18.386z" mask="url(#c)"/><path d="M107.614 46.654l.004-8.86c7.09-.711 12.7-6.784 12.7-14.101s-5.63-13.424-12.719-14.132l.02-9.455c13.084.315 23.592 11.088 23.592 24.328a24.359 24.359 0 01-8.572 18.585l12.17 16.933-17.424.029z" mask="url(#c)"/><path d="M169.95 1.895c.5 0 .861.048 1.097.145.414.174.626.514.626 1.023 0 .363-.13.63-.395.8-.14.091-.337.154-.587.198.313.048.549.18.689.392.154.218.226.422.226.626v.3c0 .092 0 .194.01.3.004.107.019.18.033.209l.024.053h-.664c-.005-.014-.005-.029-.01-.043-.005-.015-.005-.025-.01-.044l-.014-.13v-.32c0-.47-.13-.781-.38-.931-.145-.087-.41-.126-.785-.126h-.56V5.94h-.707V1.895zm.755.64c-.173-.102-.462-.156-.852-.156h-.602v1.469h.636c.298 0 .525-.03.674-.092.274-.107.414-.32.414-.63 0-.296-.092-.495-.27-.592zm1.907 4.007c-.712.722-1.58 1.08-2.595 1.08-1.017 0-1.879-.358-2.586-1.08a3.593 3.593 0 01-1.065-2.612c0-1.018.361-1.88 1.074-2.602.713-.718 1.57-1.076 2.577-1.076 1.016 0 1.883.358 2.595 1.076.718.717 1.074 1.584 1.074 2.602s-.356 1.89-1.074 2.612zm-4.82-4.86c-.612.62-.915 1.37-.915 2.248 0 .882.303 1.633.91 2.253a3.005 3.005 0 002.23.936c.876 0 1.618-.31 2.23-.936.61-.62.914-1.371.914-2.253 0-.877-.303-1.628-.915-2.249a3.011 3.011 0 00-2.23-.93c-.861 0-1.608.31-2.224.93z"/></g></g></svg>
